X: 291
M: 6/8
L: 1/8
K: G
|:\
|:\
(g/a/b)g (f/g/a)f | (e/f/g)e dBG | (g/a/b)g (f/g/a)f | Te3 g3 |\
(g/a/b)g (f/g/a)f | (e/f/g)e dBG | GBd dBd | Te3 g3 :|

